X:1
T:James Gibb editions
T:Contentez vous - Certon
%%score [ 1 2 ]
L:1/8
Q:1/4=120
M:4/4
K:C
V:1 treble nm="Soprano" snm="S"
V:2 treble nm="Alto" snm="A"
V:1
"^Contentez vous""^Pierre Certon\n(1510-72)" z4 c4- | c4 B4 | A4 G4 | z2 E2 G2 G2 | A2 c2 B4 | %5
w: Con-|* ten-|tez vous|a- my de|la pen- sé-|
 A4 z2 E2 | G2 G2 A2 (c2- | BAGF E2) (c2- |[M:4/4] c2 B4 A2- | A2 ^G2) A4 | z2 A2 A2 A2 | %11
w: e, a-|my de la pen\-|* * * * * sé\-||* * e,|Jus- que à|
 (c4 B2 c2- | c2 BA G4) | z2 c2 c2 c2 | A2 (d3 cBA | B2) (A3 G) (G2- | G2 ^F2) G4- | G4 z2 G2 | %18
w: tant * *||que la pei-|ne im\- * * *|* por\- * tu\-|* * ne|* Se-|
 A4 (c4- | c2 BA) B4 | z2 G2 G2 G2 | E2 G2 F4 | E2 G2 G2 G2 | A2 (c2 BA) (d2- | d2 c4 B2) | c4 z4 | %26
w: ra don\-|* * * ne|par l'heu- reu-|se for- tu-|ne, par l'heu- reu-|se for\- * * tu\-||ne.|
 c8 | B4 A4 | G4 z2 E2 | G2 G2 A2 c2 | B4 A4 | z2 E2 G2 G2 | A2 (c2 BAGF | E2) (c4 B2- | %34
w: Le|temps et|lieu d'e-|stre re- com- pen-|sé- e,|d'e\-~ stre~ re-|com~- pen\- * * * *|* sé\- *|
 B2 A4 ^G2) | A4 z4 | c8 | B4 A4 | G4 z2 E2 | G2 G2 A2 c2 | B4 A4 | z2 E2 G2 G2 | A2 (c2 BAGF | %43
w: |e.|Le|temps et|lieu d'e-|stre re- com- pen-|sé- e,|d'e~- stre re-|com- pen\- * * * *|
 E2) (c4 B2- | B2 A4 ^G2) | A16 |] %46
w: * sé\- *||e.|
V:2
 F8 | E4 D4 | C2 A,2 C2 C2 | D2 (E3 DCB, | A,2) (A4 G2) | A2 A,2 (C3 D | E2) E2 D2 C2 | %7
w: Con-|ten- tez|vous a- my de|la pen\- * * *|* sé\- *|e, a- my *|* de la pen-|
 (D2 E3 DCB, |[M:4/4] A,2 D3 CB,A, | B,4) A,2 D2 | D2 D2 (F4- | EDEF G2 E2 | F4 E2) C2 | %13
w: sé\- * * * *||* e, Jus-|que à tant||* * que|
 C2 C2 A,2 A,2 | (D3 CB,A, G,2) | (D4 B,2 C2 | A,4 G,2 C2 | (CB,CD EF) G2- | G2 FE F4) | G4 z2 G2 | %20
w: la pei- ne im-|por\- * * * *|tu\- * *|* ne Se-|ra * * * * * don\-||ne par|
 G2 G2 E2 (G2- | GF) (E4 D2) | E4 z2 C2 | C2 C2 D2 F2 | (E2 DC D4) | C2 C2 A,2 (C2- | %26
w: l'heu- reu- se for\-|* * tu\- *|ne, par|l'heu- reu- se for-|tu\- * * *|ne. Le temps et|
 CB,A,G, A,4) | G,2 G4 F2 | G2 E2 (G3 F | EDCB, A,2) (A2- | A2 G2) A2 A,2 | (A,B,CD EFGE | %32
w: |lieu d'e- stre|re- com- pen\- *|* * * * * sé\-|* * e, re-|com\- * * * * * * *|
 F2 E2 D2 E2- | EDCB, A,2) E2 | (D2 C2 B,4) | C2 C2 A,2 (C2- | CB,A,G, A,4) | G,2 G4 F2 | %38
w: |* * * * * pen-|sé\- * *|e. Le temps et||lieu~ d'e~- stre|
 G2 E2 (G3 F | EDCB, A,2) (A2- | A2 G2) A2 A,2 | (A,B,CD EFGE | F2 E2 D2 E2- | EDCB, A,2) E2 | %44
w: re- com- pen\- *|* * * * * sé\-|* * e, re-|com\- * * * * * * *||* * * * * pen-|
 (D2 C2 B,4) | A,16 |] %46
w: sé\- * *|e.|

